X:48
T:Leg of the Duck
R:Jig
C:Traditional
S:Willie Clancy
M:6/8
L:1/8
K:D
e | fdd edd | fef dBA | Bee ede | Bee ede |
fdd edd | fef dBA | Bdd dcd | Add d3 :|
fga efg | fef dBA | Bee ede | Bee ede |
fga efg | fef dBA | Bdd dcd | Add d3 :|
W: I gave it to Molly
W: Because she was jolly
W: The leg of the duck
W: The leg of the duck
W: She has it, she's got it
W: Wherever she put it
W:The leg of the duck
W:The leg of the duck
W:I gave it to Nelly
W:To stick in her belly
W:The leg of the duck
W:The leg of the duck
W:She has it, she's got it
W:Wherever she put it
